flaticon/hand-gestures/smartphone.svg

<svg xmlns="http://www.w3.org/2000/svg" width="32" height="32" viewBox="0 0 24 24">
    <path d="M19.601562 4L19.199219 4C18.960938 4 18.800781 4.160156 18.800781 4.398438 18.800781 4.640625 18.960938 4.800781 19.199219 4.800781L19.601562 4.800781C19.839844 4.800781 20 4.640625 20 4.398438 20 4.160156 19.839844 4 19.601562 4zM17.601562 4L17.199219 4C16.960938 4 16.800781 4.160156 16.800781 4.398438 16.800781 4.640625 16.960938 4.800781 17.199219 4.800781L17.601562 4.800781C17.839844 4.800781 18 4.640625 18 4.398438 18 4.160156 17.839844 4 17.601562 4zM14 4.398438C14 4.160156 13.839844 4 13.601562 4L12.398438 4C12.160156 4 12 4.160156 12 4.398438 12 4.640625 12.160156 4.800781 12.398438 4.800781L13.601562 4.800781C13.839844 4.800781 14 4.640625 14 4.398438zM16 19.601562C16.238281 19.601562 16.398438 19.441406 16.398438 19.199219 16.398438 18.960938 16.238281 18.800781 16 18.800781L15.199219 18.800781C14.960938 18.800781 14.800781 18.960938 14.800781 19.199219 14.800781 19.441406 14.960938 19.601562 15.199219 19.601562zM16.398438 20.398438L14.800781 20.398438C14.558594 20.398438 14.398438 20.558594 14.398438 20.800781 14.398438 21.039062 14.558594 21.199219 14.800781 21.199219L16.398438 21.199219C16.640625 21.199219 16.800781 21.039062 16.800781 20.800781 16.800781 20.558594 16.640625 20.398438 16.398438 20.398438zM12.398438 10.960938C12.398438 10.71875 12.238281 10.558594 12 10.558594 11.761719 10.558594 11.601562 10.71875 11.601562 10.960938 11.601562 11.28125 11.640625 11.601562 11.71875 11.878906 11.800781 12.039062 11.960938 12.160156 12.121094 12.160156 12.160156 12.160156 12.199219 12.160156 12.238281 12.160156 12.441406 12.121094 12.558594 11.878906 12.519531 11.679688 12.441406 11.441406 12.398438 11.199219 12.398438 10.960938zM19.199219 10.558594C19 10.558594 18.800781 10.71875 18.800781 10.960938 18.800781 11.199219 18.761719 11.441406 18.679688 11.679688 18.640625 11.878906 18.761719 12.121094 18.960938 12.160156 19 12.160156 19.039062 12.160156 19.078125 12.160156 19.238281 12.160156 19.398438 12.039062 19.480469 11.878906 19.558594 11.558594 19.601562 11.28125 19.601562 10.960938 19.601562 10.761719 19.441406 10.558594 19.199219 10.558594zM13 8.28125C12.839844 8.160156 12.558594 8.199219 12.441406 8.359375 12.238281 8.601562 12.078125 8.878906 11.960938 9.160156 11.878906 9.359375 11.960938 9.601562 12.160156 9.679688 12.199219 9.71875 12.28125 9.71875 12.320312 9.71875 12.480469 9.71875 12.601562 9.640625 12.71875 9.480469 12.800781 9.238281 12.921875 9.039062 13.078125 8.839844 13.199219 8.679688 13.160156 8.398438 13 8.28125zM14.71875 6.878906C14.398438 6.960938 14.121094 7.078125 13.839844 7.199219 13.640625 7.28125 13.558594 7.519531 13.640625 7.71875 13.71875 7.878906 13.839844 7.960938 14 7.960938 14.078125 7.960938 14.121094 7.960938 14.238281 7.878906 14.441406 7.761719 14.679688 7.679688 14.921875 7.640625 15.121094 7.601562 15.238281 7.359375 15.199219 7.160156 15.160156 6.960938 14.921875 6.839844 14.71875 6.878906zM17.441406 7.238281C17.160156 7.078125 16.839844 7 16.558594 6.921875 16.359375 6.839844 16.121094 7 16.078125 7.199219 16 7.398438 16.160156 7.640625 16.359375 7.679688 16.601562 7.71875 16.839844 7.800781 17.039062 7.921875 17.078125 7.960938 17.160156 7.960938 17.199219 7.960938 17.359375 7.960938 17.480469 7.878906 17.640625 7.761719 17.71875 7.558594 17.640625 7.320312 17.441406 7.238281zM19.078125 9.679688C19.28125 9.601562 19.359375 9.359375 19.28125 9.160156 19.160156 8.878906 19 8.601562 18.800781 8.359375 18.679688 8.160156 18.398438 8.160156 18.238281 8.28125 18.039062 8.398438 18.039062 8.679688 18.160156 8.839844 18.28125 9.039062 18.398438 9.238281 18.519531 9.480469 18.601562 9.640625 18.71875 9.71875 18.878906 9.71875 18.960938 9.71875 19 9.71875 19.078125 9.679688zM19.078125 9.679688"/>
    <path d="M 22.398438 2.398438 L 20.398438 2.398438 C 20.398438 2.160156 20.238281 2 20 2 L 19.601562 2 C 19.359375 2 19.199219 2.160156 19.199219 2.398438 L 18.800781 2.398438 C 18.800781 2.160156 18.640625 2 18.398438 2 L 18 2 C 17.761719 2 17.601562 2.160156 17.601562 2.398438 L 17.199219 2.398438 C 17.199219 2.160156 17.039062 2 16.800781 2 L 16.398438 2 C 16.160156 2 16 2.160156 16 2.398438 L 1.601562 2.398438 C 0.71875 2.398438 0 3.121094 0 4 L 0 14 C 0 14.878906 0.71875 15.601562 1.601562 15.601562 L 12.800781 15.601562 L 12.800781 21.601562 C 12.800781 21.839844 12.960938 22 13.199219 22 C 13.441406 22 13.601562 21.839844 13.601562 21.601562 L 13.601562 12 C 13.601562 11.558594 13.761719 11.160156 14 10.800781 L 14 13.199219 L 17.199219 13.199219 L 17.199219 10.800781 C 17.441406 11.160156 17.601562 11.558594 17.601562 12 L 17.601562 21.601562 C 17.601562 21.839844 17.761719 22 18 22 C 18.238281 22 18.398438 21.839844 18.398438 21.601562 L 18.398438 15.601562 L 22.398438 15.601562 C 23.28125 15.601562 24 14.878906 24 14 L 24 4 C 24 3.121094 23.28125 2.398438 22.398438 2.398438 Z M 1.601562 14.800781 C 1.160156 14.800781 0.800781 14.441406 0.800781 14 L 0.800781 4 C 0.800781 3.558594 1.160156 3.199219 1.601562 3.199219 L 3.601562 3.199219 L 3.601562 14.800781 Z M 16.398438 12.359375 L 14.800781 12.359375 L 14.800781 10 L 14.8125 9.855469 C 14.882812 9.484375 15.207031 9.199219 15.601562 9.199219 C 16.011719 9.199219 16.351562 9.515625 16.394531 9.914062 L 16.394531 9.921875 C 16.398438 9.949219 16.398438 9.972656 16.398438 10 Z M 18.398438 14.800781 L 18.398438 13.6875 C 18.476562 13.621094 18.546875 13.558594 18.601562 13.480469 C 18.71875 13.320312 18.71875 13.039062 18.558594 12.921875 C 18.511719 12.882812 18.457031 12.859375 18.398438 12.847656 L 18.398438 12 C 18.398438 11.0625 17.945312 10.160156 17.164062 9.65625 C 17.003906 8.941406 16.363281 8.398438 15.601562 8.398438 C 14.835938 8.398438 14.191406 8.945312 14.035156 9.664062 C 13.253906 10.199219 12.800781 11.0625 12.800781 12 L 12.800781 12.789062 C 12.742188 12.804688 12.6875 12.832031 12.640625 12.878906 C 12.480469 13.039062 12.441406 13.28125 12.601562 13.441406 C 12.675781 13.515625 12.734375 13.589844 12.800781 13.65625 L 12.800781 14.800781 L 4.398438 14.800781 L 4.398438 3.199219 L 20.800781 3.199219 L 20.800781 14.800781 Z M 23.199219 14 C 23.199219 14.441406 22.839844 14.800781 22.398438 14.800781 L 21.601562 14.800781 L 21.601562 3.199219 L 22.398438 3.199219 C 22.839844 3.199219 23.199219 3.558594 23.199219 4 Z M 23.199219 14"/>
    <path d="M 2.398438 8.398438 L 2 8.398438 C 1.761719 8.398438 1.601562 8.601562 1.601562 8.800781 L 1.601562 9.199219 C 1.601562 9.441406 1.800781 9.601562 2 9.601562 L 2.398438 9.601562 C 2.640625 9.601562 2.800781 9.441406 2.800781 9.199219 L 2.800781 8.800781 C 2.800781 8.558594 2.601562 8.398438 2.398438 8.398438 Z M 2.398438 8.398438"/>
</svg>

<svg xmlns="http://www.w3.org/2000/svg" width="32" height="32" viewBox="0 0 24 24">
    <path d="M19.602 4h-.403c-.238 0-.398.16-.398.398 0 .243.16.403.398.403h.403c.238 0 .398-.16.398-.403C20 4.16 19.84 4 19.602 4zm0 0M17.602 4h-.403c-.238 0-.398.16-.398.398 0 .243.16.403.398.403h.403c.238 0 .398-.16.398-.403C18 4.16 17.84 4 17.602 4zm0 0M14 4.398C14 4.16 13.84 4 13.602 4h-1.204c-.238 0-.398.16-.398.398 0 .243.16.403.398.403h1.204c.238 0 .398-.16.398-.403zm0 0M16 19.602c.238 0 .398-.16.398-.403 0-.238-.16-.398-.398-.398h-.8c-.24 0-.4.16-.4.398 0 .242.16.403.4.403zm0 0M16.398 20.398h-1.597c-.242 0-.403.16-.403.403 0 .238.16.398.403.398h1.597c.243 0 .403-.16.403-.398 0-.242-.16-.403-.403-.403zm0 0M12.398 10.96c0-.241-.16-.401-.398-.401-.238 0-.398.16-.398.402 0 .32.039.64.117.918.082.16.242.281.402.281h.117c.203-.039.32-.281.282-.48a2.313 2.313 0 0 1-.122-.72zm0 0M19.2 10.559a.4.4 0 0 0-.4.402c0 .238-.038.48-.12.719-.04.199.082.441.28.48h.118c.16 0 .32-.12.402-.281.079-.32.122-.598.122-.918 0-.2-.16-.402-.403-.402zm0 0M13 8.281c-.16-.12-.441-.082-.559.078-.203.243-.363.52-.48.801-.082.2 0 .442.2.52.038.039.12.039.16.039.16 0 .28-.078.398-.239.082-.242.203-.44.36-.64.12-.16.081-.442-.079-.559zm0 0M14.719 6.879c-.32.082-.598.2-.88.32-.198.082-.28.32-.198.52.078.16.199.242.359.242.078 0 .121 0 .238-.082.203-.117.442-.2.684-.238.2-.04.316-.282.277-.48-.039-.2-.277-.321-.48-.282zm0 0M17.441 7.238c-.28-.16-.601-.238-.882-.316-.2-.082-.438.078-.48.277-.079.2.081.442.28.48.243.04.48.122.68.243.04.039.121.039.16.039.16 0 .281-.082.442-.2.078-.202 0-.44-.2-.523zm0 0M19.078 9.68c.203-.078.281-.32.203-.52a3.354 3.354 0 0 0-.48-.8c-.121-.2-.403-.2-.563-.079-.199.117-.199.399-.078.559.121.2.238.398.36.64.082.16.199.239.359.239.082 0 .121 0 .2-.04zm0 0"/>
    <path d="M22.398 2.398h-2c0-.238-.16-.398-.398-.398h-.398c-.243 0-.403.16-.403.398h-.398c0-.238-.16-.398-.403-.398H18c-.238 0-.398.16-.398.398h-.403c0-.238-.16-.398-.398-.398h-.403c-.238 0-.398.16-.398.398H1.602C.719 2.398 0 3.121 0 4v10c0 .879.719 1.602 1.602 1.602H12.8v6c0 .238.16.398.398.398.242 0 .403-.16.403-.398V12c0-.441.16-.84.398-1.2v2.4h3.2v-2.4c.241.36.402.759.402 1.2v9.602c0 .238.16.398.398.398.238 0 .398-.16.398-.398v-6h4c.883 0 1.602-.723 1.602-1.602V4c0-.879-.719-1.602-1.602-1.602zM1.602 14.801C1.16 14.8.8 14.44.8 14V4c0-.441.36-.8.8-.8h2v11.6zm14.796-2.442h-1.597V10l.011-.145a.805.805 0 0 1 .79-.656c.41 0 .75.317.793.715v.008c.003.027.003.05.003.078zm2 2.442v-1.114c.079-.066.149-.128.204-.207.117-.16.117-.44-.043-.558a.355.355 0 0 0-.16-.074V12c0-.938-.454-1.84-1.235-2.344a1.61 1.61 0 0 0-1.562-1.258c-.766 0-1.41.547-1.567 1.266A2.813 2.813 0 0 0 12.801 12v.79a.347.347 0 0 0-.16.089c-.16.16-.2.402-.04.562.075.075.133.149.2.215v1.145H4.398V3.199h16.403v11.602zM23.2 14c0 .441-.36.8-.8.8h-.797V3.2h.796c.442 0 .801.359.801.8zm0 0"/>
    <path d="M2.398 8.398H2a.403.403 0 0 0-.398.403v.398A.4.4 0 0 0 2 9.602h.398c.243 0 .403-.16.403-.403v-.398c0-.242-.2-.403-.403-.403zm0 0"/>
</svg>
